X:1
T:The Duke of Athole's Nurse
M:4/4
L:1/8
K:G
 D2| D2D-E F2E-F| A2 E2 D2B-B| A2A-Bc-de-e| d4 A2| G2| A2 AB c2 cc|\
d-cA-c d2 c2| A2G-c AG E2| D4 D2||
